img/cart-icon.svg

<svg width="58" height="58" viewBox="0 0 58 58" fill="none" xmlns="http://www.w3.org/2000/svg">
<circle cx="29" cy="29" r="29" fill="white"/>
<path d="M42.0832 23.3273C41.9507 23.197 41.7654 23.1353 41.5811 23.1599H34.3847V19.9801C34.3847 16.8375 31.8371 14.2899 28.6945 14.2899C25.5519 14.2899 23.0043 16.8375 23.0043 19.9801V23.1599H15.8078C15.6069 23.1599 15.4061 23.1599 15.3057 23.3273C15.1707 23.457 15.1081 23.6447 15.1383 23.8294L17.6487 37.5529C17.9994 39.4673 19.6524 40.8681 21.5984 40.9001H35.7905C37.742 40.8521 39.3916 39.4402 39.7402 37.5194L42.2506 23.8294C42.2808 23.6447 42.2182 23.457 42.0832 23.3273ZM24.3431 19.9801C24.3431 17.5769 26.2913 15.6288 28.6944 15.6288C31.0976 15.6288 33.0458 17.5769 33.0458 19.9801V23.1599H24.3431V19.9801ZM38.4013 37.352C38.1758 38.6206 37.0789 39.5488 35.7905 39.5612H21.5984C20.31 39.5488 19.2131 38.6207 18.9876 37.352L16.6111 24.4988H40.7778L38.4013 37.352Z" fill="#474132"/>
<circle cx="36.9859" cy="38.3783" r="4.54348" fill="url(#gradient2)" stroke="#F8F3E6"/>
<defs>
  <linearGradient id="gradient2" x1="42.0293" y1="43.4218" x2="31.9424" y2="43.4218" gradientUnits="userSpaceOnUse">
  <stop stop-color="#EBB949"/>
  <stop offset="1" stop-color="#FECA56"/>
  </linearGradient>
</defs>
</svg>

<svg width="58" height="58" fill="none" xmlns="http://www.w3.org/2000/svg"><circle cx="29" cy="29" r="29" fill="#fff"/><path d="M42.083 23.327a.602.602 0 00-.502-.167h-7.196v-3.18a5.69 5.69 0 00-11.38 0v3.18h-7.197c-.201 0-.402 0-.502.167a.569.569 0 00-.168.502l2.51 13.724a4.084 4.084 0 003.95 3.347h14.193a4.117 4.117 0 003.95-3.38l2.51-13.69a.569.569 0 00-.168-.503zm-17.74-3.347a4.351 4.351 0 018.703 0v3.18h-8.703v-3.18zm14.058 17.372a2.678 2.678 0 01-2.61 2.21H21.598a2.678 2.678 0 01-2.61-2.21L16.61 24.499h24.167L38.4 37.352z" fill="#474132"/><circle cx="36.986" cy="38.378" r="4.543" fill="url(#gradient2)" stroke="#F8F3E6"/><defs><linearGradient id="gradient2" x1="42.029" y1="43.422" x2="31.942" y2="43.422" gradientUnits="userSpaceOnUse"><stop stop-color="#EBB949"/><stop offset="1" stop-color="#FECA56"/></linearGradient></defs></svg>
